X:1
T:[ID 6v-25a (= 6-79a)]
T:[ID 6v-25a (= 6-79a)]
T:Bezeichnung standardisiert: Allegro Allegro
T:Urheber unbekannt Datum in der hier transkribierten schriftlichen Quelle: 1775
C:Urheber unbekannt
C:Datum in der hier transkribierten schriftlichen Quelle: 1775
L:1/8
M:2/4
K:D
V:1 treble 
V:1
 A/G/ | FFFA | ddde | ff fe/d/ | g f2 e | ff fe/d/ | g f2 a | fe/d/ fe/d/ | A3 :: f | fe/d/ f | %11
 g f2 f | ef fe/d/ | g f2 a | g f2 a | g f2 f | fa/f/ fe | dB AG | F3 f | dc/d/ ed/c/ | %20
 dc/d/ ed/c/ | dfff | fa/g/ fe | dBAG | F3 :| %25

